packages/ffe-icons/icons/filled/sm/pets.svg

<svg xmlns="http://www.w3.org/2000/svg" height="20" viewBox="0 -960 960 960" width="20"><path d="M192.247-490.001q-36.016 0-61.131-24.868-25.115-24.868-25.115-60.884 0-36.016 24.868-61.131 24.868-25.115 60.884-25.115 36.016 0 61.131 24.868 25.115 24.868 25.115 60.884 0 36.016-24.868 61.131-24.868 25.115-60.884 25.115Zm168-144q-36.016 0-61.131-24.868-25.115-24.868-25.115-60.884 0-36.016 24.868-61.131 24.868-25.115 60.884-25.115 36.016 0 61.131 24.868 25.115 24.868 25.115 60.884 0 36.016-24.868 61.131-24.868 25.115-60.884 25.115Zm240 0q-36.016 0-61.131-24.868-25.115-24.868-25.115-60.884 0-36.016 24.868-61.131 24.868-25.115 60.884-25.115 36.016 0 61.131 24.868 25.115 24.868 25.115 60.884 0 36.016-24.868 61.131-24.868 25.115-60.884 25.115Zm178 151q-38.016 0-65.131-26.868-27.115-26.868-27.115-64.884 0-38.016 26.868-65.131 26.868-27.115 64.884-27.115 38.016 0 65.131 26.868 27.115 26.868 27.115 64.884 0 38.016-26.868 65.131-26.868 27.115-64.884 27.115ZM285-105.001q-34.154 0-58.076-28.025-23.923-28.026-23.923-68.974 0-45.461 31.423-77.346 31.423-31.884 61.269-65.73 26-30.385 46.192-61.193 20.193-30.807 42.808-61.807 18.846-24.077 42.285-37 23.439-12.923 53.022-12.923 30.01 0 54.312 12.615 24.303 12.615 41.764 37.077 23 31 42.808 61.115 19.808 30.116 45.423 61.116 28.846 34.846 61.269 66.23 32.423 31.385 32.423 78.169 0 39.625-24.423 67.651-24.422 28.025-59.576 28.025-50 0-97-12t-97-12q-50 0-97.5 12.5t-97.5 12.5Z"/></svg>

<svg xmlns="http://www.w3.org/2000/svg" height="20" viewBox="0 -960 960 960" width="20"><path d="M192.25-490q-36.02 0-61.13-24.87Q106-539.74 106-575.75q0-36.02 24.87-61.13Q155.74-662 191.75-662q36.02 0 61.13 24.87Q278-612.26 278-576.25q0 36.02-24.87 61.13Q228.26-490 192.25-490Zm168-144q-36.02 0-61.13-24.87Q274-683.74 274-719.75q0-36.02 24.87-61.13Q323.74-806 359.75-806q36.02 0 61.13 24.87Q446-756.26 446-720.25q0 36.02-24.87 61.13Q396.26-634 360.25-634Zm240 0q-36.02 0-61.13-24.87Q514-683.74 514-719.75q0-36.02 24.87-61.13Q563.74-806 599.75-806q36.02 0 61.13 24.87Q686-756.26 686-720.25q0 36.02-24.87 61.13Q636.26-634 600.25-634Zm178 151q-38.02 0-65.13-26.87Q686-536.74 686-574.75q0-38.02 26.87-65.13Q739.74-667 777.75-667q38.02 0 65.13 26.87Q870-613.26 870-575.25q0 38.02-26.87 65.13Q816.26-483 778.25-483ZM285-105q-34.15 0-58.08-28.03Q203-161.05 203-202q0-45.46 31.42-77.35 31.43-31.88 61.27-65.73 26-30.38 46.2-61.19 20.19-30.81 42.8-61.81 18.85-24.07 42.29-37Q450.42-518 480-518q30.01 0 54.31 12.62 24.3 12.61 41.77 37.07 23 31 42.8 61.12 19.81 30.11 45.43 61.11 28.84 34.85 61.27 66.23Q758-248.46 758-201.68q0 39.63-24.42 67.65Q709.15-106 674-106q-50 0-97-12t-97-12q-50 0-97.5 12.5T285-105Z"/></svg>
